icons/visa-line.svg

<svg width="24" height="24" fill="none" xmlns="http://www.w3.org/2000/svg"><g clip-path="url(#a)"><path d="m22.222 15.768-.225-1.125h-2.514l-.4 1.117-2.015.004c.96-2.307 1.92-4.613 2.884-6.918.164-.391.455-.59.884-.588.328.003.863.003 1.606.001L24 15.765l-1.778.003Zm-2.173-2.666h1.62l-.605-2.82-1.015 2.82ZM7.06 8.257l2.026.002-3.132 7.51-2.051-.002a950.643 950.643 0 0 1-1.528-5.956c-.1-.396-.298-.673-.679-.804A63.566 63.566 0 0 0 0 8.465V8.26h3.237c.56 0 .887.271.992.827.106.557.372 1.975.8 4.254L7.06 8.257Zm4.81.002-1.602 7.508-1.928-.002 1.6-7.508 1.93.002Zm3.91-.139c.577 0 1.304.18 1.722.345l-.338 1.557c-.378-.152-1-.357-1.523-.35-.76.013-1.23.332-1.23.638 0 .498.816.749 1.656 1.293.959.62 1.085 1.177 1.073 1.782-.013 1.256-1.073 2.495-3.309 2.495-1.02-.015-1.388-.101-2.22-.396l.352-1.625c.847.355 1.206.468 1.93.468.663 0 1.232-.268 1.237-.735.004-.332-.2-.497-.944-.907-.744-.411-1.788-.98-1.774-2.122.017-1.462 1.402-2.443 3.369-2.443h-.001Z" /></g><defs><clipPath id="a"><path fill="#fff" d="M0 0h24v24H0z"/></clipPath></defs></svg>

<svg xmlns="http://www.w3.org/2000/svg" width="24" height="24" fill="none"><g clip-path="url(#a)"><g><path fill="#121212" d="M22.222 15.768L21.997 14.643H19.483L19.083 15.76L17.068 15.764C18.0273 13.4571 18.9886 11.1511 19.952 8.84599C20.116 8.45499 20.407 8.256 20.836 8.258C21.164 8.261 21.699 8.261 22.442 8.259L24 15.765L22.222 15.768ZM20.049 13.102H21.669L21.064 10.282L20.049 13.102ZM7.06 8.257L9.086 8.259L5.954 15.769L3.903 15.767C3.38725 13.7833 2.87791 11.798 2.375 9.811C2.275 9.415 2.077 9.138 1.696 9.007C1.357 8.89 0.792 8.71 0 8.465V8.26H3.237C3.797 8.26 4.124 8.531 4.229 9.087C4.335 9.644 4.601 11.062 5.029 13.341L7.06 8.257ZM11.87 8.259L10.268 15.767L8.34 15.765L9.94 8.257L11.87 8.259ZM15.78 8.12C16.357 8.12 17.084 8.3 17.502 8.465L17.164 10.022C16.786 9.87 16.164 9.665 15.641 9.672C14.881 9.685 14.411 10.004 14.411 10.31C14.411 10.808 15.227 11.059 16.067 11.603C17.026 12.223 17.152 12.78 17.14 13.385C17.127 14.641 16.067 15.88 13.831 15.88C12.811 15.865 12.443 15.779 11.611 15.484L11.963 13.859C12.81 14.214 13.169 14.327 13.893 14.327C14.556 14.327 15.125 14.059 15.13 13.592C15.134 13.26 14.93 13.095 14.186 12.685C13.442 12.274 12.398 11.705 12.412 10.563C12.429 9.10099 13.814 8.12 15.781 8.12H15.78Z"/></g></g><defs><clipPath id="a"><rect width="24" height="24" fill="white"/></clipPath></defs></svg>
